X:1
T: David's Guiding Star
N:
C:Susan Conger
S:Tune is "Guiding Star Nights"
A:
O:
R:
M:4/4
K:Em
I:speed 136
%W:
% voice 1 (1 lines, 27 notes)
K:Em
M:4/4
L:1/16
E2 G2 B2 e2 g4 g2 f2 |f2 e2 e2 f2 e8 |d2 c2 c2 B2 c4 c2 d2 |c2 B2 B2 A2 B2 A2 G2 F2 |
%W:
% voice 1 (1 lines, 26 notes)
E2 G2 B2 e2 g2 f2 e2 g2 |f2 d2 A2 d2 e4 e4 |c2 c2 A2 c2 B4 G2 B2 |A2 G2 F2 G2 E8 |
%W:
% voice 1 (1 lines, 27 notes)
E2 G2 B2 e2 g4 g2 f2 |f2 e2 e2 f2 e8 |d2 c2 c2 B2 c4 c2 d2 |c2 B2 B2 A2 B2 A2 G2 F2 |
%W:
% voice 1 (1 lines, 26 notes)
E2 G2 B2 e2 g2 f2 e2 g2 |f2 d2 A2 d2 e4 e4 |c2 c2 A2 c2 B4 G2 B2 |A2 G2 F2 G2 E8 |
%W:
% voice 1 (1 lines, 18 notes)
D6 F2 A4 c4 |B2 A2 G2 A2 B8 |B6 F2 F4 A4 |G2 A2 G2 F2 E8 |
%W:
% voice 1 (1 lines, 15 notes)
G6 A2 G4 E4 |D2 D2 G2 A2 B4 B2 c2 |B8 A8 |G8 F8 |
%W:
% voice 1 (1 lines, 18 notes)
D6 F2 A4 c4 |B2 A2 G2 A2 B8 |B6 F2 F4 A4 |G2 A2 G2 F2 E8 |
%W:
% voice 1 (1 lines, 21 notes)
G6 A2 G4 E4 |D2 D2 G2 A2 B8 |c2 c2 A2 c2 B4 G2 B2 |A2 G2 F2 G2 E8 ||
